X: 1
T: Peter Barnes' Trip to Skye
C: Barbara McOwen \251 Feb 1992
R: slow march, strathspey
S: BSFC 2021 Gala Celebration on Zoom 2021-6-6
Z: 2021 John Chambers <jc:trillian.mit.edu>
M: C
L: 1/8
K: Am
"A"|: A>B |\
"Am"c>BA<G A2A>B | c>AG>E "G"G3F | "C"E3D "F"C>B,C<D | "Em"E2B,2 B,2C>B, || "Am"A,>B,C<A, "G"B,>CD<B, |
| "F"C<EE<A A<cc<e | "Dm"d>eg>d "E7"e>dc<B | "Am"e2A2 A2 "^B":: e>g | "Am"a3g e2e>g | a>ge>d e>dc<B |
| "F"c2A>B c>Bc<d | "Em"e2B2 B2c>B || "Am"A>GE<G E>DC<E | "G"D<GG<B B<dd<g | "F"b>ag<e "E7"g>ed<B | "Am"e2A2 A2 :|
